X:81
T:Lord Johnny Scott
T:a little different from our set of John the Little Scott
Z:Jack Campin - http://www.campin.me.uk
S:Blaikie MS (NLS MS.1578) p24, Blaikie #75
M:3/4
L:1/8
V:1 midi program 1 74
V:2 midi program 1 46 bass middle = d transpose -24
Q:1/4=100
K:E Dorian % keysig in MS is minor
[V:1] E2 F2 AB|d2 e2 dc|B2 d2 FE|F4 d2|
[V:2] e2 B2 g2|f4    f2|g4    g2|d4 d2|
%
[V:1] c2 e2 FE|D2 E2 FA|B2 dc dF|E4 z2|]
[V:2] A2 a2 a2|f2 e2 d2|g2 f2 b2|e4 z2|]
W:Transcription (c) Jack Campin 2009, no mirroring or republication without permission

